app/assets/icons/steem.svg

<svg width="28px" height="29px" viewBox="0 0 28 29" version="1.1" xmlns="http://www.w3.org/2000/svg" xmlns:xlink="http://www.w3.org/1999/xlink">
    <g stroke="none" stroke-width="1" fill="none" fill-rule="evenodd">
        <g id="steem">
            <path d="M4.22924444,3.23195745 C3.94488889,3.09004255 0.337866667,6.07148936 0.337866667,8.265 C0.332888889,11.2631064 4.54533333,18.0552766 5.25466667,20.6825532 C5.86506667,22.9359149 4.21928889,25.6403191 4.67164444,25.7631064 C5.0848,26.0284255 9.01475556,22.0486383 9.16782222,20.3518298 C9.36506667,17.6498936 4.57893333,9.77114894 4.19751111,7.73682979 C3.75511111,5.36253191 4.54782222,3.28502128 4.22924444,3.23195745 L4.22924444,3.23195745 L4.22924444,3.23195745 Z" id="Fill-1" fill="#1A5099"></path>
            <path d="M13.2321778,0.130191489 C12.8700444,-0.0505957447 8.26871111,3.74778723 8.26871111,6.54844681 C8.26373333,10.3715106 13.6353778,19.0338723 14.5394667,22.3812128 C15.3172444,25.2546809 13.2197333,28.7038298 13.7934222,28.8580851 C14.3235556,29.1949787 19.3324444,24.1242979 19.5296889,21.9573191 C19.7823111,18.5131064 13.6764444,8.46738298 13.1904889,5.86910638 C12.6267556,2.84878723 13.6353778,0.197446809 13.2321778,0.130191489 L13.2321778,0.130191489 L13.2321778,0.130191489 Z" id="Fill-2" fill="#4BA2F2"></path>
            <path d="M22.5238222,3.23195745 C22.2419556,3.09004255 18.6324444,6.07148936 18.6324444,8.265 C18.6280889,11.2631064 22.8399111,18.0552766 23.5498667,20.6825532 C24.1596444,22.9359149 22.5144889,25.6403191 22.9662222,25.7631064 C23.3818667,26.0284255 27.3124444,22.0486383 27.4630222,20.3518298 C27.6596444,17.6498936 22.8741333,9.77114894 22.4920889,7.73682979 C22.0503111,5.36253191 22.8424,3.28502128 22.5238222,3.23195745 L22.5238222,3.23195745 Z" id="Fill-3" fill="#1A5099"></path>
        </g>
    </g>
</svg>

<svg viewBox="0 0 28 29" xmlns="http://www.w3.org/2000/svg"><g fill="none" fill-rule="evenodd"><path d="M4.23 3.232C3.944 3.09.337 6.072.337 8.265c-.005 2.998 4.207 9.79 4.917 12.418.61 2.253-1.036 4.957-.583 5.08.413.265 4.343-3.714 4.496-5.411.197-2.702-4.59-10.58-4.97-12.615-.443-2.374.35-4.452.031-4.505z" fill="#1A5099"/><path d="M13.232.13C12.87-.05 8.27 3.748 8.27 6.548c-.005 3.824 5.366 12.486 6.27 15.833.778 2.874-1.32 6.323-.746 6.477.53.337 5.54-4.734 5.737-6.9.252-3.445-5.854-13.49-6.34-16.089-.563-3.02.445-5.672.042-5.739z" fill="#4BA2F2"/><path d="M22.524 3.232c-.282-.142-3.892 2.84-3.892 5.033-.004 2.998 4.208 9.79 4.918 12.418.61 2.253-1.036 4.957-.584 5.08.416.265 4.346-3.714 4.497-5.411.197-2.702-4.589-10.58-4.97-12.615-.443-2.374.35-4.452.03-4.505z" fill="#1A5099"/></g></svg>
